X:1
T:CROOKAUN A VEN……
T:[? Cruach·n na FÈinne -- Mount of the Fenians; Avenging and bright]
S:Holden's Collection of the Most Esteem'd Old Irish Melodies, Bks. II, c1807
B:Fleischmann, Sources of Irish Traditional Music c. 1600-1855, vol. 2, 1998, p. 829 [no. 4561]
M:3/4
L:1/8
K:Dm
A2 | d2 defd | e2 a2 ag|f2 d2 d2|c2 A2 A2|
d2 defd|e2 a2 ag|e2 d2 d2| d4:||: e2|
f2 f3/2g/af|e2 c2 A2 |BABdcB|A2 F2 F2|
f2 fgaf|e2 c2 A2|B3/2A/G3/2F/E3/2D/|{D}d4:|]
Contact us
suse.folkinfo.org
